X: 30031
M: 2/4
L: 1/16
K: G
V: 1 staves=3
[G2D2] |\
(dc)(cB) A2D2 | (cB)(BA) G4 | (dc)(cB) A2D2 | (cB)(BA) G4 |\
V: 2
(BA)(AG) F2D2 | (AG)(GF) B,4 | BAAG F2D2 | AGGF B,4 |\
V: 3 clef=bass middle=d
d2 |\


